assets/images/about-line.svg

<svg width="1371" height="346" fill="none" xmlns="http://www.w3.org/2000/svg"><circle r="143.711" transform="matrix(-1 0 0 1 172.982 173.018)" stroke="#0029FF"/><circle r="172.5" transform="matrix(-1 0 0 1 173 173)" stroke="#0029FF"/><path d="M73.358 190.324l2.774 9.651 10.265-3.059.862 2.962-23.16 6.695-4.072-14.235 2.484-.714 3.294 11.32 7.731-2.152-2.661-9.754 2.483-.714zm-1.869-13.532l3.242 2.351 8.051-.276.19 3.083-23.976 1.311-.232-3.106 11.74-.656-3.012-2.167-9.27-6.576-.231-3.712 10.995 7.864 12.958-9.74.231 3.713-10.686 7.911zm9.144-17.72l1.873-11.588 2.535.414-2.458 14.572-23.613-3.891.5-3.031 21.163 3.524zm191.2-2.924l-4.052-9.752-9.741 3.054-1.263-3.018 21.758-6.845 6.096 14.615-2.343.719-4.782-11.444-7.398 2.335 4.051 9.751-2.326.585zm2.69 13.252l-3.499-2.546-7.915.452-.617-3.184 23.248-1.527.616 3.185-11.347.769 3.272 2.137 10.138 6.879.753 3.777-11.822-8.134-11.287 9.941-.752-3.777 9.212-7.972zm-7.483 17.842l-.167 11.992-2.613-.429.252-14.987 23.986 3.743.004 3.125-21.462-3.444z" fill="#0029FF"/><circle r="60.36" transform="matrix(-1 0 0 1 171.658 174.342)" stroke="#0029FF"/><circle r="44.483" transform="matrix(-1 0 0 1 171.659 174.341)" stroke="#0029FF"/><circle cx="103.701" cy="246.038" r="15.377" stroke="#0029FF"/><circle cx="242.253" cy="246.038" r="15.377" stroke="#0029FF"/><circle cx="103.701" cy="100.673" r="15.377" stroke="#0029FF"/><circle cx="242.253" cy="100.673" r="15.377" stroke="#0029FF"/><circle r="143.711" transform="matrix(-1 0 0 1 1300.98 173.018)" stroke="#0029FF"/><circle r="172.5" transform="matrix(-1 0 0 1 1301 173)" stroke="#0029FF"/><path d="M1201.36 190.324l2.77 9.651 10.27-3.059.86 2.962-23.16 6.695-4.07-14.235 2.48-.714 3.29 11.32 7.74-2.152-2.67-9.754 2.49-.714zm-1.87-13.532l3.24 2.351 8.05-.276.19 3.083-23.97 1.311-.24-3.106 11.74-.656-3.01-2.167-9.27-6.576-.23-3.712 11 7.864 12.95-9.74.24 3.713-10.69 7.911zm9.14-17.72l1.88-11.588 2.53.414-2.46 14.572-23.61-3.891.5-3.031 21.16 3.524z" fill="#0029FF"/><circle r="60.36" transform="matrix(-1 0 0 1 1299.66 174.342)" stroke="#0029FF"/><circle r="44.483" transform="matrix(-1 0 0 1 1299.66 174.341)" stroke="#0029FF"/><circle cx="1231.7" cy="246.038" r="15.377" stroke="#0029FF"/><circle cx="1370.25" cy="246.038" r="15.377" stroke="#0029FF"/><circle cx="1231.7" cy="100.673" r="15.377" stroke="#0029FF"/><circle cx="1370.25" cy="100.673" r="15.377" stroke="#0029FF"/><circle r="157.5" transform="matrix(-1 0 0 1 925 173)" stroke="#0029FF"/><circle r="172.5" transform="matrix(-1 0 0 1 925 173)" stroke="#0029FF"/><circle r="78" transform="matrix(-1 0 0 1 923.5 174.5)" stroke="#0029FF"/><circle r="57.5" transform="matrix(-1 0 0 1 924 174)" stroke="#0029FF"/><circle cx="855.701" cy="282.876" r="15.377" stroke="#0029FF"/><circle cx="994.253" cy="282.876" r="15.377" stroke="#0029FF"/><circle cx="812.876" cy="112.876" r="15.377" stroke="#0029FF"/><circle cx="1038.88" cy="112.876" r="15.377" stroke="#0029FF"/><circle cx="923.876" cy="44.877" r="15.377" stroke="#0029FF"/><path d="M1041.46 189.736l.73-9.95-10.68-.832.22-3.084 23.87 1.838-1.07 14.922-2.57-.214.83-11.687-8.12-.618-.72 9.95-2.49-.325zm-2.45 13.627l-2.13-3.479-7.74-2.45.91-3.002 22.83 7.023-.91 3.001-11.16-3.407 2.11 3.042 6.41 9.65-1.06 3.567-7.42-11.35-15.41 4.622 1.06-3.567 12.51-3.65zm-14.27 13.527l-5.73 10.288-2.26-1.297 7.2-12.842 20.8 11.734-1.45 2.698-18.56-10.581zm-210.284-3.665l4.405 8.952 9.634-4.686 1.373 2.769-21.519 10.491-6.626-13.413 2.318-1.112 5.197 10.501 7.317-3.574-4.405-8.952 2.306-.976zm-4.779-12.995l3.6 1.922 7.918-1.804.733 3.05-23.249 5.495-.733-3.05 11.347-2.705-3.357-1.557-10.412-5.08-.891-3.613 12.145 6.035 10.955-11.784.891 3.613-8.947 9.478zm5.47-18.889l-.266-11.771 2.602-.023.289 14.718-23.877.401-.117-3.059 21.369-.266z" fill="#0029FF"/><circle r="143.711" transform="matrix(-1 0 0 1 548.982 173.018)" stroke="#0029FF"/><circle r="133.5" transform="matrix(-1 0 0 1 549 173)" stroke="#0029FF"/><circle r="172.5" transform="matrix(-1 0 0 1 549 173)" stroke="#0029FF"/><circle r="60.36" transform="matrix(-1 0 0 1 547.658 174.342)" stroke="#0029FF"/><circle r="35" transform="matrix(-1 0 0 1 547.5 174.5)" stroke="#0029FF"/><g clip-path="url(#clip0)" fill="#0029FF"><path d="M484.449 102.155l-6.99 6.955 7.56 7.432-2.139 2.143L466 101.821l10.318-10.242 1.807 1.81-8.179 8.194 5.564 5.669 7.132-6.908 1.807 1.811zm10.554-8.432l-.475 3.906 4.089 6.812-2.568 1.62-12.6-20.056 2.568-1.667 6.181 9.813.428-3.62 1.236-11.1 3.091-1.953-1.522 13.196 14.598 6.574-3.091 1.953-11.935-5.478zm19.497-.81l10.888-3.859.856 2.382-13.741 4.764-7.941-22.2 2.853-1 7.085 19.913zm128.807 72.411l-1.57-9.528-10.317 1.668-.524-3.049 23.394-3.764 2.282 14.292-2.52.429-1.806-11.386-7.989 1.286 1.522 9.766-2.472.286zm.713 13.577l-2.806-2.811-7.988-.476v-3.049L657 173.899v3.096l-11.554-.667 2.71 2.43 8.036 7.432-.238 3.668-9.842-8.861-13.694 8.098v-3.668l11.602-6.526zm-10.652 16.341l-3.138 11.147-2.568-.715 3.994-14.291 22.728 6.479-.808 2.906-20.208-5.526zm-114.351 71.553l9.509 2.334 2.52-10.337 2.948.714-5.61 23.105-14.265-3.478.618-2.477 11.174 2.715 1.902-7.86-9.51-2.334.714-2.382zm-12.791-4.621l3.708-1.525 3.614-7.193 2.758 1.381-10.461 21.247-2.758-1.381 5.088-10.386-3.281 1.572-10.365 4.717-3.281-1.62 12.172-5.431-1.997-15.864 3.281 1.62 1.522 12.863zm-10.795-16.197l-9.034-7.289 1.617-2 11.269 9.146-14.693 18.484-2.377-1.858 13.218-16.483z"/></g><defs><clipPath id="clip0"/></defs></svg>

<svg width="1371" height="346" viewBox="0 0 1371 346" fill="none" xmlns="http://www.w3.org/2000/svg">
<circle r="143.711" transform="matrix(-1 0 0 1 172.982 173.018)" stroke="#0029FF"/>
<circle r="172.5" transform="matrix(-1 0 0 1 173 173)" stroke="#0029FF"/>
<path d="M73.3583 190.324L76.1316 199.975L86.3969 196.916L87.2588 199.878L64.0987 206.573L60.027 192.338L62.5106 191.624L65.805 202.944L73.5364 200.792L70.8747 191.038L73.3583 190.324Z" fill="#0029FF"/>
<path d="M71.4888 176.792L74.7314 179.143L82.7822 178.867L82.9719 181.95L58.9961 183.261L58.7641 180.155L70.5034 179.499L67.4919 177.332L58.2223 170.756L57.9909 167.044L68.9857 174.908L81.9441 165.168L82.1755 168.881L71.4888 176.792Z" fill="#0029FF"/>
<path d="M80.6327 159.072L82.5056 147.484L85.0411 147.898L82.5833 162.47L58.9699 158.579L59.47 155.548L80.6327 159.072Z" fill="#0029FF"/>
<path d="M271.833 156.148L267.781 146.396L258.04 149.45L256.777 146.432L278.535 139.587L284.631 154.202L282.288 154.921L277.506 143.477L270.108 145.812L274.159 155.563L271.833 156.148Z" fill="#0029FF"/>
<path d="M274.523 169.4L271.024 166.854L263.109 167.306L262.492 164.122L285.74 162.595L286.356 165.78L275.009 166.549L278.281 168.686L288.419 175.565L289.172 179.342L277.35 171.208L266.063 181.149L265.311 177.372L274.523 169.4Z" fill="#0029FF"/>
<path d="M267.04 187.242L266.873 199.234L264.26 198.805L264.512 183.818L288.498 187.561L288.502 190.686L267.04 187.242Z" fill="#0029FF"/>
<circle r="60.3598" transform="matrix(-1 0 0 1 171.658 174.342)" stroke="#0029FF"/>
<circle r="44.4833" transform="matrix(-1 0 0 1 171.659 174.341)" stroke="#0029FF"/>
<circle cx="103.701" cy="246.038" r="15.3765" stroke="#0029FF"/>
<circle cx="242.253" cy="246.038" r="15.3765" stroke="#0029FF"/>
<circle cx="103.701" cy="100.673" r="15.3765" stroke="#0029FF"/>
<circle cx="242.253" cy="100.673" r="15.3765" stroke="#0029FF"/>
<circle r="143.711" transform="matrix(-1 0 0 1 1300.98 173.018)" stroke="#0029FF"/>
<circle r="172.5" transform="matrix(-1 0 0 1 1301 173)" stroke="#0029FF"/>
<path d="M1201.36 190.324L1204.13 199.975L1214.4 196.916L1215.26 199.878L1192.1 206.573L1188.03 192.338L1190.51 191.624L1193.8 202.944L1201.54 200.792L1198.87 191.038L1201.36 190.324Z" fill="#0029FF"/>
<path d="M1199.49 176.792L1202.73 179.143L1210.78 178.867L1210.97 181.95L1187 183.261L1186.76 180.155L1198.5 179.499L1195.49 177.332L1186.22 170.756L1185.99 167.044L1196.99 174.908L1209.94 165.168L1210.18 168.881L1199.49 176.792Z" fill="#0029FF"/>
<path d="M1208.63 159.072L1210.51 147.484L1213.04 147.898L1210.58 162.47L1186.97 158.579L1187.47 155.548L1208.63 159.072Z" fill="#0029FF"/>
<circle r="60.3598" transform="matrix(-1 0 0 1 1299.66 174.342)" stroke="#0029FF"/>
<circle r="44.4833" transform="matrix(-1 0 0 1 1299.66 174.341)" stroke="#0029FF"/>
<circle cx="1231.7" cy="246.038" r="15.3765" stroke="#0029FF"/>
<circle cx="1370.25" cy="246.038" r="15.3765" stroke="#0029FF"/>
<circle cx="1231.7" cy="100.673" r="15.3765" stroke="#0029FF"/>
<circle cx="1370.25" cy="100.673" r="15.3765" stroke="#0029FF"/>
<circle r="157.5" transform="matrix(-1 0 0 1 925 173)" stroke="#0029FF"/>
<circle r="172.5" transform="matrix(-1 0 0 1 925 173)" stroke="#0029FF"/>
<circle r="78" transform="matrix(-1 0 0 1 923.5 174.5)" stroke="#0029FF"/>
<circle r="57.5" transform="matrix(-1 0 0 1 924 174)" stroke="#0029FF"/>
<circle cx="855.701" cy="282.876" r="15.3765" stroke="#0029FF"/>
<circle cx="994.253" cy="282.876" r="15.3765" stroke="#0029FF"/>
<circle cx="812.876" cy="112.876" r="15.3765" stroke="#0029FF"/>
<circle cx="1038.88" cy="112.876" r="15.3765" stroke="#0029FF"/>
<circle cx="923.876" cy="44.8765" r="15.3765" stroke="#0029FF"/>
<path d="M1041.46 189.736L1042.19 179.786L1031.51 178.954L1031.73 175.87L1055.6 177.708L1054.53 192.63L1051.96 192.416L1052.79 180.729L1044.67 180.111L1043.95 190.061L1041.46 189.736Z" fill="#0029FF"/>
<path d="M1039.01 203.363L1036.88 199.884L1029.14 197.434L1030.05 194.432L1052.88 201.455L1051.97 204.456L1040.81 201.049L1042.92 204.091L1049.33 213.741L1048.27 217.308L1040.85 205.958L1025.44 210.58L1026.5 207.013L1039.01 203.363Z" fill="#0029FF"/>
<path d="M1024.74 216.89L1019.01 227.178L1016.75 225.881L1023.95 213.039L1044.75 224.773L1043.3 227.471L1024.74 216.89Z" fill="#0029FF"/>
<path d="M814.456 213.225L818.861 222.177L828.495 217.491L829.868 220.26L808.349 230.751L801.723 217.338L804.041 216.226L809.238 226.727L816.555 223.153L812.15 214.201L814.456 213.225Z" fill="#0029FF"/>
<path d="M809.677 200.23L813.277 202.152L821.195 200.348L821.928 203.398L798.679 208.893L797.946 205.843L809.293 203.138L805.936 201.581L795.524 196.501L794.633 192.888L806.778 198.923L817.733 187.139L818.624 190.752L809.677 200.23Z" fill="#0029FF"/>
<path d="M815.147 181.341L814.881 169.57L817.483 169.547L817.772 184.265L793.895 184.666L793.778 181.607L815.147 181.341Z" fill="#0029FF"/>
<circle r="143.711" transform="matrix(-1 0 0 1 548.982 173.018)" stroke="#0029FF"/>
<circle r="133.5" transform="matrix(-1 0 0 1 549 173)" stroke="#0029FF"/>
<circle r="172.5" transform="matrix(-1 0 0 1 549 173)" stroke="#0029FF"/>
<circle r="60.3598" transform="matrix(-1 0 0 1 547.658 174.342)" stroke="#0029FF"/>
<circle r="35" transform="matrix(-1 0 0 1 547.5 174.5)" stroke="#0029FF"/>
<g clip-path="url(#clip0)">
<path d="M484.449 102.155L477.459 109.11L485.019 116.542L482.88 118.685L466 101.821L476.318 91.5788L478.125 93.3891L469.946 101.583L475.51 107.252L482.642 100.344L484.449 102.155Z" fill="#0029FF"/>
<path d="M495.003 93.7227L494.528 97.6291L498.617 104.441L496.049 106.061L483.449 86.0052L486.017 84.3378L492.198 94.1514L492.626 90.5309L493.862 79.431L496.953 77.4778L495.431 90.6738L510.029 97.248L506.938 99.2012L495.003 93.7227Z" fill="#0029FF"/>
<path d="M514.5 92.913L525.388 89.0543L526.244 91.4362L512.503 96.2001L504.562 74.0004L507.415 73L514.5 92.913Z" fill="#0029FF"/>
<path d="M643.307 165.324L641.737 155.796L631.42 157.464L630.896 154.415L654.29 150.651L656.572 164.943L654.052 165.372L652.246 153.986L644.257 155.272L645.779 165.038L643.307 165.324Z" fill="#0029FF"/>
<path d="M644.02 178.901L641.214 176.09L633.226 175.614V172.565L657 173.899V176.995L645.446 176.328L648.156 178.758L656.192 186.19L655.954 189.858L646.112 180.997L632.418 189.095V185.427L644.02 178.901Z" fill="#0029FF"/>
<path d="M633.368 195.242L630.23 206.389L627.662 205.674L631.656 191.383L654.384 197.862L653.576 200.768L633.368 195.242Z" fill="#0029FF"/>
<path d="M519.017 266.795L528.526 269.129L531.046 258.792L533.994 259.506L528.384 282.611L514.119 279.133L514.737 276.656L525.911 279.371L527.813 271.511L518.303 269.177L519.017 266.795Z" fill="#0029FF"/>
<path d="M506.226 262.174L509.934 260.649L513.548 253.456L516.306 254.837L505.845 276.084L503.087 274.703L508.175 264.317L504.894 265.889L494.529 270.606L491.248 268.986L503.42 263.555L501.423 247.691L504.704 249.311L506.226 262.174Z" fill="#0029FF"/>
<path d="M495.431 245.977L486.397 238.688L488.014 236.688L499.283 245.834L484.59 264.318L482.213 262.46L495.431 245.977Z" fill="#0029FF"/>
</g>
<defs>
<clipPath id="clip0">
</clipPath>
</defs>
</svg>
